icons/volume-2.svg

<svg xmlns="http://www.w3.org/2000/svg" fill="currentColor" class="vi" viewBox="0 0 16 16"><path d="M9.75 2a.75.75 0 0 0-1.19-.608l-4.237 3.06a.25.25 0 0 1-.146.048H3.25A1.75 1.75 0 0 0 1.5 6.25v4c0 .966.784 1.75 1.75 1.75h.927a.25.25 0 0 1 .146.047l4.238 3.061A.75.75 0 0 0 9.75 14.5V2ZM5.201 5.669 8.25 3.467v9.566l-3.049-2.202a1.75 1.75 0 0 0-1.024-.331H3.25a.25.25 0 0 1-.25-.25v-4A.25.25 0 0 1 3.25 6h.927A1.75 1.75 0 0 0 5.2 5.669Zm7.368 6.681c-.346-.213-.457-.66-.288-1.03A7.972 7.972 0 0 0 13 8a7.971 7.971 0 0 0-.72-3.32c-.168-.37-.057-.817.289-1.03.36-.222.835-.104 1.017.279A9.464 9.464 0 0 1 14.5 8a9.464 9.464 0 0 1-.914 4.071c-.182.383-.657.5-1.017.279Z"/></svg>

<svg xmlns="http://www.w3.org/2000/svg" fill="currentColor" class="vi" viewBox="0 0 16 16"><path d="M9.75 2a.75.75 0 0 0-1.19-.6L4.32 4.44a.25.25 0 0 1-.14.05h-.93c-.97 0-1.75.78-1.75 1.75v4c0 .97.78 1.75 1.75 1.75h.93c.05 0 .1.02.14.05l4.24 3.06a.75.75 0 0 0 1.19-.61V2ZM5.2 5.67l3.05-2.2v9.56l-3.05-2.2a1.8 1.8 0 0 0-1.02-.33h-.93a.25.25 0 0 1-.25-.25v-4c0-.14.11-.25.25-.25h.93c.36 0 .72-.12 1.02-.33Zm7.37 6.68a.81.81 0 0 1-.29-1.03 7.97 7.97 0 0 0 0-6.64.81.81 0 0 1 .29-1.03.7.7 0 0 1 1.02.28 9.46 9.46 0 0 1 0 8.14.7.7 0 0 1-1.02.28Z"/></svg>
